X:1
T:Puisque i'ay perdu
T:Jean Lupi
T:Source : Second livre contenant 31 chansons à 4, eslevées de plusieurs livres---Paris---P.Attaignant---1535. Editor : André Vierendeels ( 05/05/18) Notes : Original clefs : C1, C3, C3, C4 Original note values have been halved Editorial accidentals above the staff
T:Puisque i'ay perdu
T:©
T:©
T:©
C:Jean Lupi
Z:©
%%score [ 1 [ 2 3 ] 4 ]
L:1/8
Q:1/4=120
M:2/2
K:C
V:1 treble nm="Soprano" snm="S"
V:2 treble-8 nm="Tenor 1" snm="T 1"
V:3 treble-8 nm="Tenor 2" snm="T 2"
V:4 bass nm="Bass" snm="B"
V:1
 z4 G4 | G2 G2 A2 A2 | c4 B4 | A6 G2 | AB c4 BA | B4 z2 c2 | B2 A2 d3 c | B2 A3 G G2- | %8
w: Puis-|que i'ay per- du|mes a-|mours, _|_ _ _ _ _|* i'ay|bien cau- se _|_ de _ sou-|
"^#" G2 F2 G4 | z2 G2 G2 G2 | A2 A2 c4 | B4 A4- | A2 G2 AB c2- | c2 BA B4 | z2 c2 B2 A2 | %15
w: * spi- rer,|ie les re-|gret- te iour|et nuyct,|_ _ _ _ _||mais rien n'y|
 d3 c B2 A2- | AG G4 F2 | G3 F E2 DC | D4 C4 | z2 G2 A2 c2- | c2 B2 A3 G/F/ | EFGE FECD | %22
w: vault _ _ le|_ _ re- gre-|ter, _ _ _ _|_ _|car par me-|* di- sans _ _|_ _ _ _ _ _ _ _|
 EFGA Bc d2- | dc c4 B2 | c2 c2 c2 c2 | G3 A B2 B2 | A2 z A A2 A2 | E3 F G2 G2 | D4 z2 D2 | %29
w: * * * * * * suys|_ _ _ ba-|ni, nul ne se|doibt e- mer- veil-|ler, se doibt e-|mer- * * veil-|ler, si|
 F2 G2 A2 c2 | B2 A3 G G2- | G2 F2 G4- | G4 z2 A2 | A2 A2 E3 F | G2 G2 D4 | z2 D2 F2 G2 | %36
w: j'ay le cueur tri-|stet mar- * *|* * ry,|_ nul|ne se doibt e-|mer- veil- ler,|si i'ay le|
 A2 c2 B2 A2- | AG G4 F2 | G8 |] %39
w: cueur tri- st'et mar-||ry.|
V:2
 d4 e2 e2 | d2 d2 f4 | e4 d2 f2- | fe e3 d g2- | g2 f2 g4- | g4 z2 g2 | g2 f2 g2 f2 | f3 e d2 c2 | %8
w: Puis- que i'ay|per- du mes|a- mours, _|_ _ _ _ _||* i'ay|bien cau- se de|sou- * * spi-|
 d4 z2 d2 | e2 e2 d2 d2 | f4 e4 | d2 f3 e e2- | ed g4 f2 | g8 | z2 g2 g2 f2 | g2 f2 f3 e | %16
w: rer, ie|les re- gret- te|iour et|nuyct _ _ _|_ _ _ _||mais rien n'y|vault le re- *|
 d2 c2 d3 c | BcdB c2 A2 | G2 g2 f2 e2- | ed/c/de f2 f2 | e2 d2 cd e2- | ed/c/ d2 c2 e2- | %22
w: * gre- * *||ter, car par me-|* * * * * * di-|sans _ _ _ _|_ _ _ _ _ suys|
 e2 dc B2 AB | cdef g4 | e4 z2 e2 | e2 e2 d2 B2 | d2 d2 A3 B | cd e4 dc | B2 d2 c2 B2 | %29
w: _ _ _ _ _ _|* * * * ba-|ni, nul|ne se doibt e-|mer- veil- ler, _|_ _ _ _ _|* si iay le|
 dcde f2 g2- | g2 f2 e2 c2 | d2 z d d2 d2 | B3 A/G/ A2 d2 | c2 A2 G2 e2 | e2 e2 B2 d2 | %35
w: cueur _ _ _ _ tri-|* st'et _ mar-|ry, nul ne se|doibt _ _ _ e-|mer- veil- ler si|iay le cueur tri-|
 c2 B2 dcde | f2 g4 f2 | e2 c2 d4 | B8 |] %39
w: |* st'et mar-||ry.|
V:3
 G4 c2 c2 | B2 G2 d2 c2- | cBGA Bc d2- | dc/B/cd e2 d2- | d2 c2 d2 d2- | d2 B2 e4 | d2 z c B2 A2 | %7
w: Puis- que i'ay|per- du mes a-|* * * * * * mour,|_ _ _ _ _ _ _|||* j'ay bien cau-|
 d3 c B2 AG | A2 A2 G2 B2 | c2 c2 B2 G2 | d2 c3 BGA | Bc d3 c/B/cd | e2 d4 c2 | d2 d4 B2 | %14
w: se _ _ de _|sou- spi- rer, ie|les re- gret- te|iour _ _ _ _|_ _ et _ _ _ _|_ _ _|nuyct, mais rien|
 e4 d2 z c | B2 A2 d3 c | B2 AG A4 | G4 z4 | G4 A2 c2- | c2 B2 A3 G/F/ | G4 z2 A2 | A2 G2 AGAB | %22
w: ny vault, mais|rien ny vault le|re- * * gre-|ter,|car par me-|* di- * * *|sans, car|par me- di- * * *|
 cd e2 d2 f2 | e2 dc d4 | c4 z2 c2 | c2 c2 B2 G2 | AGAB c2 z c | c2 c2 G3 A | B2 B2 A2 G2 | %29
w: * * * sans suys|ba- * * *|ni, nul|ne sedoibt e- mer-|veil- * * * ler, nul|ne se doibt _|_ e- mer- veil-|
 A2 B2 c2 e2 | d3 c B2 AG | A4 G4 | z2 d2 d2 d2 | A3 B c2 c2 | G4 z2 A2 | A2 G2 A2 B2 | %36
w: ler puis- que j'ay|cueur tri- t'et _ _|mar- ry,|nul ne se|doibt e- mer- veil-|ler, puis-|que j'ay le cueur|
 c2 e2 d3 c | B2 AG A4 | G8 |] %39
w: tri- st'et mar- *||ry.|
V:4
 G,4 E,2 C,2 | G,4 D,2 F,2 | C,D,E,F, G,F,D,E, | F,G,A,B, C2 B,2 | A,4 G,4- | G,4 z2 C,2 | %6
w: Puis- que j'ay|per- du mes|a- * * * * * * *||* mours,|_ j'ay|
 G,2 A,2 G,2 D,2- | D,E, F,2 G,2 E,2 | D,4 z2 G,2 | E,2 C,2 G,4 | D,2 F,2 C,D,E,F, | %11
w: bien cau- se de|_ _ _ sou- spi-|rer, ie|les re- gret-|te iour et _ _ _|
 G,F,D,E, F,G,A,B, | C2 B,2 A,4 | G,8 | z2 C,2 G,2 A,2 | G,2 D,3 E, F,2 | G,2 E,2 D,4 | %17
w: _ _ _ _ _ _ _ _||nuyct,|mais rien ny|vault le re- gre-|* * ter,|
 z2 G,2 A,2 C2- | C2 B,2 A,3 G,/F,/ | E,2 G,2 F,3 E, | C,2 G,2 A,2 C2- | C2 B,2 A,3 G,/F,/ | %22
w: car par me|_ di sans, _ _|_ _ _ _|* car par me|_ _ _ _ _|
 E,3 F, G,2 F,2 | A,4 G,4 | z2 A,2 A,2 A,2 | E,3 F, G,2 G,2 | D,E,F,G, A,2 A,,2- | %27
w: di- * sans, suys|ba- ni,|nul ne se|doibt _ _ e-|mer- * * * * veil-|
 A,,B,,C,D, E,D,E,F, | G,2 D,2 F,2 G,2 | D,2 G,2 F,2 C,2 | G,2 D,2 E,4 | D,4 z2 G,2 | %32
w: |ler, si i'ay le|cueur tri- st'et mar-||ry, nul|
 G,2 G,2 D,3 E, |"^#" F,2 F,2 C,3 D, | E,F, G,4 D,2 | F,2 G,2 D,2 G,2 | F,2 C,2 G,2 D,2 | E,4 D,4 | %38
w: ne se doibt _|_ e- mer- veil-|* * ler, si|jay le cueur tri-|st'et mar- * *||
 G,8 |] %39
w: ry.|

